X: 11061
T: MARKO'S MARCH
C: Bob McQuillen 3 Nov 99
B: Bob's Note Book 11 #61
R: jig-time march
Z: 2020 John Chambers <jc:trillian.mit.edu>
M: 6/8
L: 1/8
K: A
e \
| afa ecA | def f2e | cee aef | ecA B2e |\
| afa ecA | def f2e | cea aec | cAA A2 :|
|: c \
| B2A Bcd | edc B2d | cBc Ace | agf e2c |\
| Ace ecA | def f2e | afa ecB | cAA A2 :|
%%begintext align
%% Here's one for Mark
%% Murray, of South Harpswell, Maine, who
%% plays such great guitar on Sarah Bauhan's
%% latest recording. "Broad Waters" (Q.V.!)
%%endtext

%%sep 1 1 500

%%sep 1 1 500

